src/img/svg/forum-icon.svg

<svg xmlns="http://www.w3.org/2000/svg" viewBox="0 0 11.582 11.582"><g fill="#546e7a"><path d="M2.482 7.446V3.31s.002-.186.099-.414H.828S0 2.895 0 3.723v2.895c0 .827.827.827.827.827v4.136h2.482V8.273s-.827 0-.827-.827zM2.482 2.482c.215 0 .414-.06.59-.156.025-.015.052-.028.078-.042.344-.22.573-.604.573-1.043a1.241 1.241 0 1 0-1.241 1.241zM10.755 2.895H9.002c.096.228.098.414.098.414v4.136c0 .827-.827.828-.827.828v3.309h2.482V7.446s.827 0 .827-.827V3.724s0-.829-.827-.829zM8.43 2.283c.027.014.055.028.08.043.176.096.375.156.59.156a1.241 1.241 0 1 0-1.241-1.241c0 .438.229.821.571 1.042z"/><circle cx="5.791" cy="1.241" r="1.241"/><path d="M8.273 3.723s0-.827-.827-.827H4.137s-.827 0-.827.827v2.895c0 .827.827.827.827.827v4.136h3.309V7.446s.827 0 .827-.827V3.723z"/></g></svg>

<?xml version="1.0" encoding="iso-8859-1"?>
<!-- Generator: Adobe Illustrator 19.1.0, SVG Export Plug-In . SVG Version: 6.00 Build 0)  -->
<svg version="1.1" id="&#x421;&#x43B;&#x43E;&#x439;_1"
	 xmlns="http://www.w3.org/2000/svg" xmlns:xlink="http://www.w3.org/1999/xlink" x="0px" y="0px" viewBox="0 0 11.582 11.582"
	 style="enable-background:new 0 0 11.582 11.582;" xml:space="preserve">
<g>
	<g>
		<path style="fill:#546E7A;" d="M2.482,7.446c0-0.827,0-4.136,0-4.136s0.002-0.186,0.099-0.414c-0.86,0-1.753,0-1.753,0
			S0,2.895,0,3.723v2.895c0,0.827,0.827,0.827,0.827,0.827v4.136h2.482V8.273C3.309,8.273,2.482,8.273,2.482,7.446z"/>
		<path style="fill:#546E7A;" d="M2.482,2.482c0.215,0,0.414-0.06,0.59-0.156C3.097,2.311,3.124,2.298,3.15,2.284
			c0.344-0.22,0.573-0.604,0.573-1.043C3.723,0.556,3.167,0,2.482,0S1.241,0.556,1.241,1.241S1.796,2.482,2.482,2.482z"/>
		<path style="fill:#546E7A;" d="M10.755,2.895H9.002C9.098,3.123,9.1,3.309,9.1,3.309s0,3.309,0,4.136S8.273,8.273,8.273,8.273
			v3.309h2.482V7.446c0,0,0.827,0,0.827-0.827s0-2.895,0-2.895S11.582,2.895,10.755,2.895z"/>
		<path style="fill:#546E7A;" d="M8.43,2.283c0.027,0.014,0.055,0.028,0.08,0.043C8.686,2.422,8.885,2.482,9.1,2.482
			c0.685,0,1.241-0.556,1.241-1.241S9.785,0,9.1,0C8.415,0,7.859,0.556,7.859,1.241C7.859,1.679,8.088,2.062,8.43,2.283z"/>
		<circle style="fill:#546E7A;" cx="5.791" cy="1.241" r="1.241"/>
		<path style="fill:#546E7A;" d="M8.273,3.723c0,0,0-0.827-0.827-0.827c-0.207,0-3.309,0-3.309,0s-0.827,0-0.827,0.827v2.895
			c0,0.827,0.827,0.827,0.827,0.827v4.136h3.309V7.446c0,0,0.827,0,0.827-0.827S8.273,3.723,8.273,3.723z"/>
	</g>
</g>
<g>
</g>
<g>
</g>
<g>
</g>
<g>
</g>
<g>
</g>
<g>
</g>
<g>
</g>
<g>
</g>
<g>
</g>
<g>
</g>
<g>
</g>
<g>
</g>
<g>
</g>
<g>
</g>
<g>
</g>
</svg>
